X: 1
T:Banish Misfortune
R:jig
O:Ireland
M:6/8
L:1/8
K:G
"D"  fed "C" cAG | "D"  Add "C" cAG | "D"  F2   D  DED | "D" FEF  "C" GFG |
"D"  AGA     cAG | "D"  AGA "C" cde | "D" fed "Am" cAG | "G" Add "D" d2 e :|
"D"  f2  d  d^cd |      f2   g  agf | "C"  e2   c  cBc | "Am" e2   f  gfe |
"D"  f2  g   agf | "C"  e2   f  gfe | "D" fed "Am" cAG | "G" Add   "D" d3 :|
"D"  f2  g  e2 f |      ded  c2   d | "D" A3       GAG |     F2   A   GED |
"C"  ~c3     cAG | "Am" AGA "C" cde | "D" fed "Am" cAG | "G" Add   "D" d3 :|
